assets/img/icons/news_feed.svg

<svg fill="none" height="25" viewBox="0 0 24 25" width="24" xmlns="http://www.w3.org/2000/svg" xmlns:xlink="http://www.w3.org/1999/xlink"><linearGradient id="a" gradientUnits="userSpaceOnUse" x1="6.29902" x2="6.29905" y1="6.69552" y2="14.8563"><stop offset="0" stop-color="#4c98ed"/><stop offset="1" stop-color="#e5a7de"/></linearGradient><path clip-rule="evenodd" d="m.85542 3.55176c-.441828 0-.8000001.35817-.8000001.8v14.93004c0 1.5464 1.2536001 2.8 2.8000001 2.8h9.72708v.0001h8.4996c1.5463 0 2.7999-1.2536 2.7999-2.8v-11.28195c0-.44183-.3581-.8-.7999-.8h-3.0009v-2.84819c0-.44183-.3582-.8-.8-.8zm19.22578 5.24819v11.68195h1.0009c.6627 0 1.2-.5373 1.2-1.2v-10.48195zm-18.42578 10.48185v-14.13004h16.82578v15.33004h-15.62578c-.66274 0-1.2-.5373-1.2-1.2z" fill="#2e3c47" fill-rule="evenodd"/><path d="m3.37134 6.69556h5.85536v8.16074h-5.85536z" fill="url(#a)"/><g clip-rule="evenodd" fill="#2e3c47" fill-rule="evenodd"><path d="m10.5669 9.24336c0-.44183.3582-.8.8-.8h4.9769c.4418 0 .8.35817.8.8s-.3582.80004-.8.80004h-4.9769c-.4418 0-.8-.35821-.8-.80004z"/><path d="m10.5669 12.3203c0-.4419.3582-.8.8-.8h4.9769c.4418 0 .8.3581.8.8 0 .4418-.3582.8-.8.8h-4.9769c-.4418 0-.8-.3582-.8-.8z"/><path d="m3.48762 17.302c-.00045-.4419.35737-.8004.7992-.8008l12.05618-.0121c.4418-.0004.8003.3574.8008.7992.0004.4418-.3574.8004-.7992.8008l-12.05618.0121c-.44183.0004-.80036-.3574-.8008-.7992z"/></g></svg>

<svg width="24" height="25" viewBox="0 0 24 25" fill="none" xmlns="http://www.w3.org/2000/svg">
<path fill-rule="evenodd" clip-rule="evenodd" d="M0.85542 3.55176C0.413592 3.55176 0.0554199 3.90993 0.0554199 4.35176V19.2818C0.0554199 20.8282 1.30902 22.0818 2.85542 22.0818H12.5825V22.0819H21.0821C22.6284 22.0819 23.882 20.8283 23.882 19.2819V7.99995C23.882 7.55812 23.5239 7.19995 23.0821 7.19995H20.0812V4.35176C20.0812 3.90993 19.723 3.55176 19.2812 3.55176H0.85542ZM20.0812 8.79995V20.4819H21.0821C21.7448 20.4819 22.2821 19.9446 22.2821 19.2819V8.79995H20.0812ZM1.65542 19.2818V5.15176H18.4812V20.4818H2.85542C2.19268 20.4818 1.65542 19.9445 1.65542 19.2818Z" fill="#2E3C47"/>
<path d="M3.37134 6.69556H9.2267V14.8563H3.37134V6.69556Z" fill="url(#paint0_linear_5018_30077)"/>
<path fill-rule="evenodd" clip-rule="evenodd" d="M10.5669 9.24336C10.5669 8.80153 10.9251 8.44336 11.3669 8.44336H16.3438C16.7856 8.44336 17.1438 8.80153 17.1438 9.24336C17.1438 9.68519 16.7856 10.0434 16.3438 10.0434H11.3669C10.9251 10.0434 10.5669 9.68519 10.5669 9.24336Z" fill="#2E3C47"/>
<path fill-rule="evenodd" clip-rule="evenodd" d="M10.5669 12.3203C10.5669 11.8784 10.9251 11.5203 11.3669 11.5203H16.3438C16.7856 11.5203 17.1438 11.8784 17.1438 12.3203C17.1438 12.7621 16.7856 13.1203 16.3438 13.1203H11.3669C10.9251 13.1203 10.5669 12.7621 10.5669 12.3203Z" fill="#2E3C47"/>
<path fill-rule="evenodd" clip-rule="evenodd" d="M3.48762 17.302C3.48717 16.8601 3.84499 16.5016 4.28682 16.5012L16.343 16.4891C16.7848 16.4887 17.1433 16.8465 17.1438 17.2883C17.1442 17.7301 16.7864 18.0887 16.3446 18.0891L4.28842 18.1012C3.84659 18.1016 3.48806 17.7438 3.48762 17.302Z" fill="#2E3C47"/>
<defs>
<linearGradient id="paint0_linear_5018_30077" x1="6.29902" y1="6.69552" x2="6.29905" y2="14.8563" gradientUnits="userSpaceOnUse">
<stop stop-color="#4C98ED"/>
<stop offset="1" stop-color="#E5A7DE"/>
</linearGradient>
</defs>
</svg>
